X: 38
T: Jenny Sutton
%R: reel
B: Urbani & Liston "A Selection of Scotch, English Irish, and Foreign Airs", Edinburgh 1800, p.15 #3
F: http://www.vwml.org/browse/browse-collections-dance-tune-books/browse-urbani1800
Z: 2014 John Chambers <jc:trillian.mit.edu>
M: C|
L: 1/8
K: G
|:\
G/G/G GB dBdB | G/G/G GB cAFA |\
G/G/G GB dBdB | decA B2G2 :|\
gGgG fGfG | efge dBAG |
gGgG fGfG | efge Te2d2 |\
gdEg fADf | eGce dBAG |\
G/G/G GB dBec | BgAf g2G2 |]

%%sep 1 1 500
%%sep 1 1 500
